icon-themes/sifr_svg/cmd/lc_decrementindent.svg

<svg viewBox="0 0 24 24" xmlns="http://www.w3.org/2000/svg"><path d="m2 3v2h20v-2zm5 4c-.354218 0-.55232.1-.75.28125l-4.25 3.939453v1.615235l4.25 3.882812c.19768.18125.45.28125.75.28125h.6.4v-1c0-.5-.3-.669482-.6835938-1l-3.3164062-3 3.3164062-3c.3456951-.3392438.6835938-.5442579.6835938-1v-1h-.4zm3 1v2h12v-2zm0 6v2h12v-2zm-8 5v2h20v-2z" fill="#555753"/></svg>

<svg xmlns="http://www.w3.org/2000/svg" viewBox="0 0 24 24">
  <path
     style="fill:#555753"
     d="M 2 3 L 2 5 L 22 5 L 22 3 L 2 3 z M 7 7 C 6.645782 7 6.44768 7.1 6.25 7.28125 L 2 11.220703 L 2 12.835938 L 6.25 16.71875 C 6.44768 16.9 6.7 17 7 17 L 7.6 17 L 8 17 L 8 16 C 8 15.5 7.7 15.330518 7.3164062 15 L 4 12 L 7.3164062 9 C 7.6621013 8.6607562 8 8.4557421 8 8 L 8 7 L 7.6 7 L 7 7 z M 10 8 L 10 10 L 22 10 L 22 8 L 10 8 z M 10 14 L 10 16 L 22 16 L 22 14 L 10 14 z M 2 19 L 2 21 L 22 21 L 22 19 L 2 19 z "
     />
</svg>
